X: 1
T: River Ugie
C:\251 George Meikle
B: George Meikle "Originally Mine" p.21
R: strathspey
Z: 2010 John Chambers <jc:trillian.mit.edu>
M: 4/4
L: 1/8
K: C
E |:\
"C"C<C E>G "E/C7"B,<B, E>G | "F"A,<A, F>A "G7"G2 G>F |\
"C"E<G A>G "Am"c>A G>E | "Dm"(3FGF "C"EFE "B/G7"D>F E>D |
"C"C<C E>G "E/C7"B,<B, E>G | "F"A,<A, F>A "G7"G<G A>B |\
"Am"c2 A>c "E/C"G>E D>C | "Dm"D>F "G7"E>D "C"C2 E>F ||
"C"G<G E>c "F"A<A F>c | "G7"B>G A>B "C"c2 c>B |\
"F"A<A c>A "E/C"G>E D>C | "Dm"D>E F>E "G7"D2 E>F |
"C"G<G E>c "F"A<A F>c | "G7"B>G A>B "C"c2 c>B |\
"F"c<c A>c "E/C"G>E D<C | "Dm"D>F "G7"E>D "C"C2 C2 :|
%%begintext align
Composed for the dance "Inverugie Castle" which is a 32S+32J medley devised by Joyce Elliott.   The
dance and tune were published by the RSCDS Leicester Branch in their Crystal Collection of 1992 and
the tune was recorded by the Lothian Scottish Dance Band for a cassette to complement the book. The
tune Bob Ritchie, also composed by myself, should be used as the jig tune for this medley.
%%endtext

%%sep 1 1 500
%%sep 1 1 500

